X: 247
T:Tenpenny Bit
T:Sherlocks
R:jig
H:played after Dan Coleman's and after Bernie Stocks' #48.
H:Bernie Stocks has this from Paddy Canny and Peter O'Loughlin, Clare
(fiddles).
N:id:hn-jig-262 as "no name",
N:Bernie Stocks #47 (second setting here) as "Sherlocks"
Z:Lesl for the first part, Bernie Stocks 2nd one.
M:6/8
L:1/8
K:G
e|edB G2A|Bed B^cd|edB G2A|BAF GFE|
DBD G2A|Bed B^cd|ede gdB|ABG A(3Bcd:|
|:e2f ~g3|eag fed|e2f ~g3|efg ~a3|
bag agf|gfe daf|gfg edB|BAG ABd:|
%
|: edB G2A | B2e dBd | edB G2A | BAF GFE |
DB,D G2A | Bed Bcd | edB gdB | BAG ABd :|
|: e2f gfg | eag fed | e2f gfg | efg a3 |
bag agf | gfe def | gfe fdB | BAG ABd :|
<end>
<start>
